chainCurrencyIcons/colored/128-min.svg

<svg viewBox="0 0 128 128" fill="none" xmlns="http://www.w3.org/2000/svg"><rect width="128" height="128" rx="64" fill="white"/><g clip-path="url(#clip0_317_608)"><path d="M72.0251 48.6063C72.0251 37.1273 66.4916 27.2376 62.2532 24C62.2532 24 61.9589 23.8234 61.9589 24.2943C61.6057 46.4871 50.3621 52.5504 44.1222 60.6151C29.8176 79.3348 43.1215 99.8204 56.6608 103.588C64.2547 105.707 54.8948 99.8204 53.7175 87.4584C52.3047 72.4474 72.0251 61.0272 72.0251 48.6063" fill="#282E5B"/><path d="M79.4422 56.2002C79.3833 56.1413 79.2656 56.1413 79.1479 56.2002C79.1479 56.2002 79.1479 56.2002 79.089 56.259C78.8535 59.0258 75.7925 65.0302 71.9661 70.5048C58.9565 89.1067 66.3738 98.0545 70.5533 102.882C72.9668 105.707 70.5533 102.882 76.6166 99.9971C77.0875 99.7616 88.39 93.7572 89.6262 80.159C90.8624 66.9139 82.4444 58.6137 79.4422 56.2002" fill="#059BDC"/></g><defs><clipPath id="clip0_317_608"><rect width="51.8028" height="80" fill="white" transform="translate(38 24)"/></clipPath></defs></svg>

<svg xmlns="http://www.w3.org/2000/svg" fill="none" viewBox="0 0 128 128"><rect width="128" height="128" fill="#fff" rx="64"/><g clip-path="url(#a)"><path fill="#282E5B" d="M72.025 48.606c0-11.479-5.533-21.368-9.772-24.606 0 0-.294-.177-.294.294-.353 22.193-11.597 28.256-17.837 36.321-14.304 18.72-1 39.205 12.539 42.973 7.594 2.119-1.766-3.768-2.943-16.13-1.413-15.01 18.307-26.43 18.307-38.852"/><path fill="#059BDC" d="M79.442 56.2c-.059-.059-.176-.059-.294 0l-.059.059c-.236 2.767-3.296 8.771-7.123 14.246-13.01 18.602-5.592 27.55-1.413 32.377 2.414 2.825 0 0 6.064-2.885.47-.235 11.773-6.24 13.01-19.838 1.235-13.245-7.183-21.545-10.185-23.959"/></g><defs><clipPath id="a"><path fill="#fff" d="M38 24h51.803v80H38z"/></clipPath></defs></svg>
